X: 23078
T: Laughing Minstrel
R: hornpipe
M: 4/4
K: Dmajor
Aff=f ^fedc|Bggf g2 fg|abaf de (3fed|fee_e =e2 (3dcB|
Affe fedc|Bggf g2 (3fg^g|abaf de (3fed|edBc d2:|
cdef gfge|fffg adfa|^g=g^ga be^gb|a2 (3aec A2 (3dcB|
Aff=f ^fedc|Bggf g2 (3fg^g|abaf de (3fed|edBc d2:|

